X:67
T:Gusty's Frolics
R:slip jig
Z:id:hn-slipjig-67
M:9/8
L:1/8
K:D
A,DD DCD ~F3 | A,DD DFA GEC | A,DD DCD FDF | ~G3 E2F GFE :|
FDF AB^G A2=G | FDF ABc dAG | FED AB^G A2F | GAG E2F GFE |
FDF AB^G A2=G | FDF ABc dAG | FED dcB A2F | GFG E2F GFE ||
Add dcd ~f3 | Add dfa gec | Add dcd f2d | gfg ece gfe |
Add dcd fef | Add dfa gec | Add Add fdf | ~g3 ece gfe ||
|: dfd cec d2B | AFD DED AFD | GBd d=cB c2A | GE=C CEC GEC :|
<end>
<start>
